X:1
T:Agnus Dei
T:Claudio Monteverdi edit BMarble
T:Agnus Dei
T:Copyright © 2017 by The Choral Public Domain Library. Edition may be freely distributed, duplicated, performed or recorded.
T:Copyright © 2017 by The Choral Public Domain Library. Edition may be freely distributed, duplicated, performed or recorded.
T:Copyright © 2017 by The Choral Public Domain Library. Edition may be freely distributed, duplicated, performed or recorded.
T:Copyright © 2017 by The Choral Public Domain Library. Edition may be freely distributed, duplicated, performed or recorded.
T:Copyright © 2017 by The Choral Public Domain Library. Edition may be freely distributed, duplicated, performed or recorded.
T:Copyright © 2017 by The Choral Public Domain Library. Edition may be freely distributed, duplicated, performed or recorded.
T:Copyright © 2017 by The Choral Public Domain Library. Edition may be freely distributed, duplicated, performed or recorded.
T:Copyright © 2017 by The Choral Public Domain Library. Edition may be freely distributed, duplicated, performed or recorded.
T:Copyright © 2017 by The Choral Public Domain Library. Edition may be freely distributed, duplicated, performed or recorded.
T:Copyright © 2017 by The Choral Public Domain Library. Edition may be freely distributed, duplicated, performed or recorded.
T:Copyright © 2017 by The Choral Public Domain Library. Edition may be freely distributed, duplicated, performed or recorded.
T:Copyright © 2017 by The Choral Public Domain Library. Edition may be freely distributed, duplicated, performed or recorded.
T:Copyright © 2017 by The Choral Public Domain Library. Edition may be freely distributed, duplicated, performed or recorded.
T:Copyright © 2017 by The Choral Public Domain Library. Edition may be freely distributed, duplicated, performed or recorded.
T:Copyright © 2017 by The Choral Public Domain Library. Edition may be freely distributed, duplicated, performed or recorded.
T:Copyright © 2017 by The Choral Public Domain Library. Edition may be freely distributed, duplicated, performed or recorded.
T:Copyright © 2017 by The Choral Public Domain Library. Edition may be freely distributed, duplicated, performed or recorded.
T:Copyright © 2017 by The Choral Public Domain Library. Edition may be freely distributed, duplicated, performed or recorded.
T:Copyright © 2017 by The Choral Public Domain Library. Edition may be freely distributed, duplicated, performed or recorded.
T:Copyright © 2017 by The Choral Public Domain Library. Edition may be freely distributed, duplicated, performed or recorded.
T:Copyright © 2017 by The Choral Public Domain Library. Edition may be freely distributed, duplicated, performed or recorded.
T:Copyright © 2017 by The Choral Public Domain Library. Edition may be freely distributed, duplicated, performed or recorded.
T:Copyright © 2017 by The Choral Public Domain Library. Edition may be freely distributed, duplicated, performed or recorded.
T:Copyright © 2017 by The Choral Public Domain Library. Edition may be freely distributed, duplicated, performed or recorded.
T:Copyright © 2017 by The Choral Public Domain Library. Edition may be freely distributed, duplicated, performed or recorded.
T:Copyright © 2017 by The Choral Public Domain Library. Edition may be freely distributed, duplicated, performed or recorded.
T:Copyright © 2017 by The Choral Public Domain Library. Edition may be freely distributed, duplicated, performed or recorded.
T:Copyright © 2017 by The Choral Public Domain Library. Edition may be freely distributed, duplicated, performed or recorded.
T:Copyright © 2017 by The Choral Public Domain Library. Edition may be freely distributed, duplicated, performed or recorded.
T:Copyright © 2017 by The Choral Public Domain Library. Edition may be freely distributed, duplicated, performed or recorded.
T:Copyright © 2017 by The Choral Public Domain Library. Edition may be freely distributed, duplicated, performed or recorded.
T:Copyright © 2017 by The Choral Public Domain Library. Edition may be freely distributed, duplicated, performed or recorded.
T:Copyright © 2017 by The Choral Public Domain Library. Edition may be freely distributed, duplicated, performed or recorded.
T:Copyright © 2017 by The Choral Public Domain Library. Edition may be freely distributed, duplicated, performed or recorded.
T:Copyright © 2017 by The Choral Public Domain Library. Edition may be freely distributed, duplicated, performed or recorded.
T:Copyright © 2017 by The Choral Public Domain Library. Edition may be freely distributed, duplicated, performed or recorded.
T:Copyright © 2017 by The Choral Public Domain Library. Edition may be freely distributed, duplicated, performed or recorded.
T:Copyright © 2017 by The Choral Public Domain Library. Edition may be freely distributed, duplicated, performed or recorded.
T:Copyright © 2017 by The Choral Public Domain Library. Edition may be freely distributed, duplicated, performed or recorded.
T:Copyright © 2017 by The Choral Public Domain Library. Edition may be freely distributed, duplicated, performed or recorded.
T:Copyright © 2017 by The Choral Public Domain Library. Edition may be freely distributed, duplicated, performed or recorded.
T:Copyright © 2017 by The Choral Public Domain Library. Edition may be freely distributed, duplicated, performed or recorded.
T:Copyright © 2017 by The Choral Public Domain Library. Edition may be freely distributed, duplicated, performed or recorded.
T:Copyright © 2017 by The Choral Public Domain Library. Edition may be freely distributed, duplicated, performed or recorded.
T:Copyright © 2017 by The Choral Public Domain Library. Edition may be freely distributed, duplicated, performed or recorded.
T:Copyright © 2017 by The Choral Public Domain Library. Edition may be freely distributed, duplicated, performed or recorded.
T:Copyright © 2017 by The Choral Public Domain Library. Edition may be freely distributed, duplicated, performed or recorded.
T:Copyright © 2017 by The Choral Public Domain Library. Edition may be freely distributed, duplicated, performed or recorded.
T:Copyright © 2017 by The Choral Public Domain Library. Edition may be freely distributed, duplicated, performed or recorded.
T:Copyright © 2017 by The Choral Public Domain Library. Edition may be freely distributed, duplicated, performed or recorded.
T:Copyright © 2017 by The Choral Public Domain Library. Edition may be freely distributed, duplicated, performed or recorded.
T:Copyright © 2017 by The Choral Public Domain Library. Edition may be freely distributed, duplicated, performed or recorded.
T:Copyright © 2017 by The Choral Public Domain Library. Edition may be freely distributed, duplicated, performed or recorded.
C:Claudio Monteverdi
C:edit BMarble
Z:Copyright © 2017 by The Choral Public Domain Library. Edition may be freely distributed, duplicated, performed or recorded.
%%score [ 1 2 3 4 ]
L:1/8
Q:1/2=84
M:4/2
K:D
V:1 treble nm="SOPRANO" snm="S."
V:2 treble nm="ALTO" snm="A."
V:3 treble-8 transpose=-12 nm="TENOR" snm="T."
V:4 bass nm="BASS" snm="B."
V:1
 z16 | B8 A4 G4 | (F4 A4 G4 B4 | A4 G4 F2 E2) F4 | E8 z8 | z8 z2 E2 F2 G2 | (A2 F2 G2 E2 F2 G2 A4 | %7
w: |Ky- rie e-|le- * * *|* * * * i-|son|Ky- rie e-|le- * * * * * *|
w: |||||||
 G4) F4 E4 z2 B2 | c2 d2 e2 c2 d4 z4 | z16 | z8 z2 B2 c2 d2 | e2 c2 d2 B2 c3 d e4- | %12
w: * i- son Ky-|rie e- le- i- son||Ky- rie e-|le- * * * * * *|
w: |||||
 e2 d2 =c4 B4 A4 | G4 z4 z8 | z2 A2 B2 ^c2 (d2 B2 c2 A2 | B2 c2) d4 c4 (B2 e2 | d4) c4 B4 d4 | %17
w: * * * * i-|son|Ky- rie e- le- * * *|* * i- son, e- *|* lei- son, Ky-|
w: |||||
 c4 e4 (d6 c2-) | (cB B4) ^A2 B4 z4 | z16 | z2 B2 =A2 G2 (F2 A2 G4) | B4 A6 G2 F4 | E16 || %23
w: rie e- le- *|* * * i- son||Ky- rie e- lei- * *|son, e- le- i-|son.|
w: ||||||
 G4 G2 F2 G4 E4 | F3 G A3 G F2 GA B2 A2 | G2 (AB) (=cBAG F8) | E8 z8 | z16 | %28
w: Chri- ste e- le- *|* * * * * * * * i-|son, e- * lei- * * * *|son||
w: |||||
 z4 z2 E2 B2 A2 B2 ^G2 | A3 ^G AGAF =G2 EF GAB^G | ^A2 B4 A2 B8 | z8 B4 B2 B2 | %32
w: e- le- * * *||* * i- son|Chri- ste e-|
w: ||||
 e2 ^d2 e2 c2 =d2 c2 d2 B2 | c2 B2 c2 d2 B6 E2 | B2 A2 B2 ^G2 A3 G AGAF | =G2 EF GAB^G ^A2 B4 A2 | %36
w: le- * * * * * * *|* * * i- son e-|le- * * * * * * * * *|* * * * * * * * * i-|
w: ||||
 B16 | F4 B2 ^A2 B4 ^G4 | A3 B c2 B2 A2 Bc d2 c2 | B4 B8 ^A4 | B16 || B2 G2 =A2 F2 (G2 E2 F2) D2 | %42
w: son|Chri- ste e- le- *|* * * * * * * * i-|son, e- lei-|son.|Ky- ri- e e- le- * * i-|
w: ||||||
 E4 B4 (A4 G4 | F4) E4 z4 e4 | d4 =c4 B2 c3 B B2- | BA A3 G G4 F2 G4 | z16 | d4 B4 ^c4 A4 | %48
w: son, e- lei- *|* son Ky-|ri- e e- le- * *|* * * * * i- son||Ky- ri- e e-|
w: ||||||
 (B3 A ^G2) E2 A4 F4 | (=G4 E4) F8 | E8 z8 | z2 e2 ^c4 d3 c B2 G2 | =c3 B AG A2 B3 A G2 E2 | %53
w: le- * * i- son, e-|le- * i-|son|e- le- * * * *||
w: |||||
 A3 G FE F2 G3 F ED E2 | (F3 E D2) B,2 (E6 D2 | C4) B,4 z8 | B4 ^G2 A4 F2 (=G4 | E4) F4 E2 e4 c2 | %58
w: * * * * * * * * * i-|son, _ _ e- lei- *|* son|Ky- ri- e e- le-|* i- son Ky- ri-|
w: |||||
 d4 B4 (^c4 A4 | B4) G4 A8 |"^rit." e8 d8 | =c8 B8 | ^G16 |][Q:1/2=84] z8 =G6 G2 | G4 F4 G4 E4 | %65
w: e e- le- *|* i- son|Ky- rie|e- lei-|son.|Et in|ter- ra pax ho-|
w: |||||||
 F6 F2 F4 F4- | F4 E4 F6 G2 | E8 ^D8 | z4 z2 F2 B2 ^A2 B2 F2 | =A3 G AGAF GFEF GAB^G | %70
w: mi- ni- bus bo-|* nae vo- lun-|ta- tis.|Lau- da- mus te, lau-|da- * * * * * * * * * * * * *|
w: |||||
 ^A2 B4 A2 B8 | z16 | z4 z2 EE B2 BA B2 FG | A3 G AGAF GFEF GAB^G | ^A2 B4 A2 B8 | z16 | %76
w: * * mus te.||Be- ne- di- ci- mus te. A- do-|ra- * * * * * * * * * * * * *|* * mus te.||
w: ||||||
 z4 z2 BB e2 d2 e2 c2 | d2 c2 d2 B2 =c2 B2 c2 A2 | B6 B2 ^G4 G4- | G2 ^G2 A4 A4 =G2 G2 | %80
w: A- do- ra- mus te, glo-|ri- fi- ca- mus te, glo- ri- fi-|ca- mus te. Gra-|* ti- as a- gi- mus|
w: ||||
 F4 F4 z4 F4- | F2 F2 =A2 A2 B3 c d3 c/B/ | A3 B c3 d e3 d/c/ B3 c | d3 d B2 (d4 cB c4) | %84
w: ti- bi pro-|* pter ma- gnam glo- * * * *||* ri- am tu- * * *|
w: ||||
 d4 z4 z8 | z16 | z16 | z4 B3 A ^G4 (ABA=G | F2) F2 (GAGF E2) E2 F3 E | ^D4 (E3 =D C4) D4 | %90
w: am.|||Do- mi- ne Fi- * * *|* li u- * * * * ni- ge- ni-|te Je- * * su|
w: ||||||
 C8 B,4 z4 | z8 z4 e3 d | c4 (dedc B2) B2 (=cdcB | A2) A2 B2 B2 G4 A2 A2 | F4 E4 z4 G4 | %95
w: Chri- ste.|Do- mi-|ne De- * * * * us A- * * *|* gnus De- i Fi- li- us|Pa- tris. Qui|
w: |||||
 B4 B2 B2 B4 A4 | A4 A4 A6 G2 | G6 G2 (G4 F2 E2) | F4 z4 z8 | z16 | z16 | z16 | %102
w: tol- lis pec- ca- ta|mun- di mi- se-|re- re no- * *|bis.||||
w: |||||||
 z4 (A3 B/c/ d3) c (B3 c/d/ | e4) ^c2 c2 d2 B2 e2 e2 | (e4 ^d4) e4 z2 B2 | B4 B2 F2 B4 B2 E2 | %106
w: Su- * * * sci- pe _ _|_ de- pre- ca- ti- o- nem|no- * stram. Qui|se- des ad de- xte- ram|
w: ||||
 A4 B4 A6 A2 | G6 G2 F8 | F8 (E6 F2 | G4) A4 B8 | z8 z4 z2 ^d2 | e4 c4 =d4 B4 | z8 z2 ^d2 e4 | %113
w: Pa- tris: mi- se-|re- re no-|bis. Quo- *|* ni- am|Tu|so- lus sanc- tus|Tu so-|
w: |||||||
 c4 =d3 c B4 z4 | z4 z2 ^d2 e4 c2 A2 | d3 c B8 =c4 | A4 (G8 F4) | G8 z8 | z16 | z8 z2 A2 B2 c2 | %120
w: lus Do- mi- nus|Tu so- lus Al-|tis- si- mus Je-|su Chri- *|ste.||Cum Sanc- to|
w: |||||||
 d2 B2 c2 A2 B2 c2 d2 d2- | d2 c2 B4 A2 (d4 c2 | B4) A4 z8 | z4 z2 B2 c2 d2 e2 c2 | d4 z4 z8 | %125
w: Spi- ri- tu in glo- ri- a De-|* i Pa- tris, Pa- *|* tris.|Cum Sanc- to Spi- ri-|tu,|
w: |||||
 z4 z2 B2 c2 d2 e2 c2 | d2 B2 c2 d2 e4 d4 | c4 B4 ^A4 z4 | z4 f3 e d2 e3 d c2 | %129
w: cum Sanc- to Spi- ri-|tu in glo- ri- a De-|i Pa- tris.|A- * * * * *|
w: ||||
 d3 c BA B4 ^A^G A4 | B4 (B6 =A2 ^G4 |"^rit." A6 ^G2) F4 =G4- | (G2 F2 E8 ^D4) | E16 |] %134
w: |men. A- * *|* * men, A-||men.|
w: |||||
[Q:1/2=84] G8 A6 B2 | =c4 A4 B4 B2 G2 | A4 B4 =c4 B2 A2 | A8 G8 | z16 | z16 | z4 B6 B2 B2 B2 | %141
w: Pa- trem om-|ni- po- ten- tem fa-|cto- rem cae- li et|ter- rae.|||Et in u- num|
w: |||||||
 ^c4 c2 ^d2 e4 c4 | =d4 d4 d4 B2 B2 | c4 d4 e2 e2 d4- | d2 d2 c4 d2 c2 d2 B2 | %145
w: Do- mi- num Je- sum|Chri- stum, Fi- li- um|De- i u- ni- ge-|* ni- tum. Et ex Pa- tre|
w: ||||
 c2 B2 c2 A2 (B2 A2 B2 G2 | A4) B2 B2 B4 ^A4 | B8 z8 | z8 z4 B4 | ^G4 A4 F4 z2 B2 | %150
w: na- tum an- te om- * * *|* ni- a sae- cu-|la.|De-|um ve- rum de|
w: |||||
 ^G4 A4 (F4 E2 D2 | C8) B,4 z4 | z8 B3 A ^G2 G2 | A2 A2 F2 F2 =G2 G2 E2 E2 | F4 D4 E6 E2 | %155
w: De- o ve- * *|* ro.|Ge- ni- tum non|fa- ctum, con- sub- stan- ti- a- lem|Pa- tri: per quem|
w: |||||
 E4 E2 E2 E4 ^D4 | E4 z2 G2 B4 B2 B2 | B4 ^c4 A6 A2 | A4 B4 G4 A2 A2 | F4 F4 z8 | z8 z4 z2 e2 | %161
w: om- ni- a fa- cta|sunt. Qui pro- pter nos|ho- mi- nes et|pro- pter nos- tram sa-|lu- tem|de-|
w: ||||||
 d4 c4 B4 B4- | (B4 ^A4) B8 | B8 A6 A2 | A4 G4 A6 B2 | G4 A2 A2 F4 F4 | z2 G4 F2 E4 G4 | %167
w: scen- dit de cae-|* * lis.|Et in- car-|na- tus est de|Spi- ri- tu San- cto|ex Ma- ri- a|
w: ||||||
 G4 F4 G4 z2 D2 | F4 F4 E6 E2 | ^D8 z8 | B6 ^A2 B6 ^G2 | =A3 ^G A2 B2 =G6 F2 | G2 D2 G8 F4 | %173
w: Vir- gi- ne et|ho- mo fa- ctus|est.|Cru- ci- fi- xus|e- ti- am pro no- *||
w: ||||||
 G4 z2 B2 A3 A A2 G2 | (G4 F2 E2) F8 | z4 B8 A4- ||[M:4/2]"^rit." A4 G8 F4 ||[M:2/2] (G2 FE F4) || %178
w: bis sub Pon- ti- o Pi-|la- * * to|pas- sus|_ et se-|pul- * * *|
w: |||||
[M:6/4][Q:3/4=56] F6 E4 z2 | z12 | z12 | z12 | z6 z2 E2 E2 | B3 B ^A2 B4 ^G2 | =A3 A =G2 F3 F F2 | %185
w: tus est.||||Et a-|scen- dit in cae- lum|se- det ad de- xte- ram|
w: |||||||
 GFGAB^G ^ABcA B2- | B4 ^A2 B4 z2 | z12 | z12 | z12 | z2 z2 B2 e4 ^d2 | e4 c2 =d4 c2 | %192
w: Pa- * * * * * * * * * *|* * tris.||||Et i- te-|rum ven- tu- rus|
w: |||||||
 d4 B2 =c3 c B2 | =c4 c2 B4 A2 ||[M:4/2][Q:1/2=84] A4 A2 G2 F6 F2 | F8 z2 F4 A2 | %196
w: est cum glo- ri- a|ju- di- ca- re|vi- vos et mor- tu-|os: cu- jus|
w: ||||
 A4 A2 B2 (=c2 B2) (A2 G2) | F4 F4 E2 E2 F2 GG | A2 F2 G2 EE F2 G2 A2 F2 | GFGA BF B4 ^A^G A4 | %200
w: re- gni non e- * rit _|fi- nis. Et in Spi- ri- tum|Sanc- tum Do- mi- num, et vi- vi- fi-|can- * * * * * * * * *|
w: ||||
 B8 z8 | z16 | B2 B2 c2 dd (e2 dc d4 | c4 B3) B A8 | F12 G4 | A4 B4 E8 | F8- F4 z4 | z16 | %208
w: tem||Qui cum Pa- tre et Fi- * * *|* * li- o|si- mul|a- do- ra-|tur _||
w: ||||||||
 z8 A3 A B2 c2 | d4 c4 B2 (e4 ^d2) | e2 G2 A2 B2 =c4 B2 B2 | A3 A G4 z4 z2 A2 | B2 B2 =c3 c B4 A4 | %213
w: Qui lo- cu- tus|est per Pro- phe- *|tas. Et u- nam Sanc- tam Ca-|tho- li- cam et|A- po- sto- li- cam Ec-|
w: |||||
 (G3 A B3 A/G/ F2 G4) F2 ||[M:6/4][Q:3/4=56] G4 G2 B3 B B2 | B3 B A2 A4 A2 || %216
w: cle- * * * * * * si-|am. Con- fi- te- or|u- num ba- pti- sma|
w: |||
[M:9/4] A4 G2 G4 G2 G4 A2 ||[M:3/1][Q:1/2=84] G2 F2 (F8 E4) (F3 ^G ^A4) || %218
w: in re- mis- si- o- nem|pec- ca- to- * rum. _ _|
w: ||
[M:6/4][Q:3/4=56] B4 ^A2 B4 ^G2 ||[M:9/4] =A4 ^G2 A4 F2 =G4 F2 || %220
w: Et ex- pec- to|re- sur- rec- ti- o- nem|
w: ||
[M:3/1][Q:1/2=84] G4 F4 E8 ^D4 z2 F2 ||[M:4/2] B4 ^G2 E2 A3 =G F2 FF | B=cBA ^GF G2 ABA=G FE F2- | %223
w: mor- tu- o- rum Et|vi- tam ven- tu- ri sae- cu- li.|A- * * * * * * * * * * * * *|
w: |||
 F2 ED C4 B,4 z4 | z16 | z16 | z2 F2 B4 ^G2 E2 A4 | F4 z4 z8 | z4 z2 B2 e4 c2 A2 | %229
w: * * * * men.|||Et vi- tam ven- tu-|ri|et vi- tam ven-|
w: ||||||
 d3 c B2 BB efed cB c2 | dedc BA B2 cdcB A2 AA | B4 ^G2 E2 A3 =G F2 FF | GAGF ED E2 FGFE D=C D2 | %233
w: tu- ri- sae- cu- li. A- * * * * * *|* * * * * * * * * * * * men. Et|vi- tam ven- tu- ri sae- cu- li.|A- * * * * * * * * * * * * *|
w: ||||
 E6 (FE ^D2 E4) D2 |"^rit." E16- | E8 E8 |][Q:1/2=84] z16 | z16 | z16 | z16 | z8 (B8 | %241
w: men, A- * * * men,|A-|* men.|||||San-|
w: ||||||||
 A4 G4) F4 z2 E2 | F2 G2 A2 F2 G2 E2 FEF^G | ^A2 B4 A2 B4 (=A4 | G4) F4 z4 (B4 | %245
w: * * ctus, San-||* * * ctus, San-|* ctus, San-|
w: ||||
 A4 G4) F2 (B4 ^A2) | B4 z2 B2 c2 d2 e2 c2 | d2 B2 c2 d2 e4 A3 B | c2 d4 c2 d2 (e2 d4 | c4) B4 z8 | %250
w: * * ctus, San- *|ctus, San- * * * *||* * * ctus, San- *|* ctus,|
w: |||||
 z4 z2 A2 B2 c2 d2 B2 | c2 A2 B3 c d2 A2 d4- | d2 =c2 B4 A4 z4 | z16 | z8 A4 F4 | %255
w: San- * * * *||* * * ctus,||San- ctus|
w: |||||
 =G3 F E2 (A4 GF E4-) | E2 F2 E3 E D4 z4 | z8 z2 B2 G2 E2 | A4 F2 D2 G4 E4 | %259
w: Do- mi- nus De- * * *|* us Sa- ba- oth.|Ple- ni sunt|cae- li et ter- ra|
w: ||||
 (FGFE D2) B,2 E2 e2 =c2 A2 | d4 B2 G2 =c4 A4 | (B=cBA GABG A2) GG (G2 F2) | G4 z4 z8 | %263
w: glo- * * * * ri- a, ple- ni sunt|cae- li et ter- ra|glo- * * * * * * * * ri- a tu- *|a.|
w: ||||
 z4 z2 F2 B2 A2 B2 G2 | A2 G2 A2 F2 G2 F2 G2 E2 | F3 G A3 B c2 d4 c2 |S d8 z4 z2 A2 | %267
w: Ho- san- na in ex-|cel- * * * * * * *||sis. Ho-|
w: ||||
 d2 c2 d2 B2 (c2 B2 c2 A2 | B8) (^A3 B c4) ||[M:6/4][Q:3/4=56] ^d2 e4 d2 e4 | c2 =d4 c2 d4 | %271
w: san- na in ex- cel- * * *|* sis, _ _|ho- san- na in|ex- cel- sis, in|
w: ||||
 B2 =c4 B2 c4 ||[M:4/2][Q:1/2=84] =c8 B8 | ^G16!fine! |][Q:1/2=84] z8 B6 A2 | A4 A2 G2 G4 G2 G2 | %276
w: ex- cel- sis, in|ex- cel-|sis.|Be- ne-|di- cus qui ve- nit in|
w: |||||
 G2 GF G2 E2 F8 | z16 | z16 | z16 | B6 B2 B4 B2 A2 | A4 A2 A2 A4 A2 B2 | (G3 F E2) E2 ^D4 z4 | %283
w: no- mi- ne Do- mi- ni||||Be- ne- di- ctus qui|ve- nit in no- mi- ne|Do- * * mi- ni.|
w: |||||||
 z8 z4 z2 F2 | B2 A2 B2 G2 A2 G2 A2 F2 ||[M:3/1] G2 F2 G2 E2 F3 G A3 B c2 d4 c2!D.S.! |] %286
w: Ho-|san- na in ex- cel- * * *||
w: |||
[M:4/2][Q:1/2=64] z16 | z16 | z16 | z16 | z8 e8 | d8 c8 | B8 z4 z2 E2 | B2 BA B2 G2 A3 ^G AGAF | %294
w: ||||A-|gnus De-|i qui|tol- lis pec- ca- ta mun- * * * * *|
w: ||||||||
 =G3 F GFGE FEDE FEFG | A2 E2 (A8 ^G4) | A4 z2 A2 d2 dc d2 B2 | c3 B c2 A2 BA=GA BABc | %298
w: |* di, mun- *|di, qui tol- lis pec- ca- ta|mun- * * * * * * * * * * *|
w: ||||
 d2 A2 d8 c4 | d4 z2 B2 e2 ed e2 ^c2 | (d3 =c d2 B2 A8) | G4 z4 z8 | z16 | z16 | z16 | %305
w: |di, qui tol- lis pec- ca- ta|mun- * * * *|di:||||
w: |||||||
 (B3 A G2) E2 (A3 G F2) D2 | (G3 F E4) F4 B4 | A4 B4 ^G4 A4 | =G4 A4 F4 G4 | F4 (G3 F E2) E2 D4 | %310
w: mi- * * se- re- * * re|no- * * bis, mi-|se- re- re, mi-|se- re- re, mi-|se- re- * * re no-|
w: do- * * na no- * * bis|pa- * * cem, do-|na no- bis, do-|na no- bis, do|na no- * * bis pa-|
 B,4 B4 A4 B4 | G4 A3 G F2 D2 (G3 F | ED E2) F4 z8 | z8 z4 B3 A | G2 G2 F4 F4 G4 | F4 G4 E4 z4 || %316
w: bis, mi- se- re-|re, mi- se- re- re no- *|* * * bis,|mi- se-|re- re no- bis, mi-|se- re- re,|
w: cem, do- na no-|bis, do- na no- bis pa- *|* * * cem,|do- na|no- bis pa- cem, do-|na no- bis,|
[M:3/1]"^rit." B3 A G2 E2 A3 G(FE) E4 (^DC D4) |[M:4/2] E16 |] %318
w: mi- se- re- re, mi- se- re- * re no- * *|bis.|
w: do- na no- bis, do- na no- * bis pa- * *|cem.|
V:2
 z16 | z16 | z16 | z16 | z16 | z2 B,2 C2 D2 (E2 C2 D2 B,2 | C2) D2 E4 D4 E2 F2 | %7
w: |||||Ky- rie e- le- * * *|* i- son, Ky- rie e-|
w: |||||||
 G2 E2 F2 D2 E3 F G4- | G2 F2 E4 D2 F4 E2- | E2 D4 C4 E4 D2- | D2 F4 E2 F2 G2 A2 F2 | %11
w: le- * * * * * *|* * i- son Ky- ri-|* e e- lei- son,|_ e- le- * * * *|
w: ||||
 G2 E2 F2 G2 A6 G2 | F4 E4 D2 G2 F4 | E6 D2 E2 F2 G2 E2 | F3 E D2 E2 F2 G2 A4 | %15
w: |* i- son, e- lei-|son, e- le- * * *|* * * * * * i-|
w: ||||
 G2 E2 F2 G2 (A2 F2 G2 E2 | F2 G2) A4 G4 (F2 G2 | E2 A2) G4 F4 (B,2 C2 | D2) E2 F4 D4 E4 | %19
w: son Ky- rie e- le- * * *|* * i- son, e- *|* * lei- son, Ky- *|* ri- e, Ky- ri-|
w: ||||
 F4 G4 (E4 F4 | D4) E4 F4 D4 | (G4 F2 E2 ^D2 E4) D2 | E16 || E4 E2 ^D2 E4 C4 | %24
w: e e- le- *|* i- son, e-|le- * * * * i-|son.|Chri- ste e- le- *|
w: |||||
 =D3 E F2 E2 D2 EF G2 F2 | E4 E8 ^D4 | E8 z8 | z8 z4 z2 B,2 | E2 ^D2 E2 C2 =D3 C D2 B,2 | %29
w: * * * * * * * * i-|son, e- lei-|son,|e-|le- * * * * * * *|
w: |||||
 CB,A,B, CB,CD EB,CD E2 D2 | C2 B,2 C4 B,8 | z16 | z4 z2 F2 B2 A2 B2 ^G2 | %33
w: |* * i- son||e- le- * * *|
w: ||||
 A2 ^G2 A2 F2 =G2 F2 G2 A2 | F2 E2 F2 D2 E4 z4 | z4 z2 B,2 (E2 ^D2 E2) C2 | F16 | =D4 F2 F2 F4 E4 | %38
w: |* * * i- son|e- le- * * i-|son|Chri- ste e- le- i-|
w: |||||
 E8 A8 | G4 G4 F8 | F16 || z8 E2 C2 D2 B,2 | =C2 A,2 B,2 E2- E2 D4 E2 | ^C2 D2 B,2 C2 A,2 B,4 A,2 | %44
w: son, Chri-|ste e- lei-|son.|Ky- ri- e e-|le- i- son, e- * le- *|* * * * * * i-|
w: ||||||
 B,2 B4 A4 G4 F2 | E4 D4 =C4 B,2 C2- | CB, B,3 A, A,3 G, G,4 F,2 | G,2 G4 E4 F4 D2- | %48
w: son Ky- ri- e e-|le- i- son, e- le-|* * * * * * * i-|son Ky- ri- e e-|
w: ||||
 D2 E4 E2 C4 D4 | B,4 C4 A,4 D4 | B,4 =C4 (A,4 B,4) | G,4 A,2 A2 F4 G2 E2 | A3 G F2 D2 G3 F ED E2 | %53
w: * le- i- son, e-|le- i- son Ky-|rie e- le- *|i- son e- le- * *||
w: |||||
 F3 E D2 B,2 E3 D ^C2 A,2 | (D3 C B,A, B,4) C2 (^A,2 B,2-) | B,2 ^A,2 B,4 z4 F4 | D2 E4 C2 D4 B,4 | %57
w: * * * * * * * i-|son, _ _ _ _ e- le- *|* i- son Ky-|rie- e e- le- *|
w: ||||
 C2 =A,2 D8 C4 | B,2 B4 ^G2 A4 F4 | =G4 E4 F4 D4 | G3 F ED E2 F3 E D2 B,2 | E6 F2 (^D2 E4) D2 | %62
w: * * * i-|son Ky- ri- e e-|le- * * *|* * * * * * * * i-|son, e- le- * i-|
w: |||||
 E16 |] z8 E6 E2 | E4 ^D4 E4 C4 | =D6 D2 D4 D4- | D4 E4 D2 A,2 B,4- | (B,4 A,4) B,4 z2 B,2 | %68
w: son.|Et in|ter- ra pax ho-|mi- ni- bus bo-|* nae vo- lun- ta-|* * tis. Lau-|
w: ||||||
 E2 ^D2 E2 C2 =D3 C DCDB, | CB,A,B, CB,CD EB,CD E2 D2 | C2 B,2 C4 B,8 | z8 z4 z2 B,B, | %72
w: da- mus te, lau- da- * * * * *||* * mus te.|Be- ne-|
w: ||||
 E2 E=D E2 CC D3 C DCDB, | CB,A,B, CB,CD EB,CD E2 D2 | C2 B,2 C4 B,8 | z4 z2 FF B2 A2 B2 ^G2 | %76
w: di- ci- mus te. A- do- ra- * * * * *||* * mus te.|A- do- ra- mus te, glo-|
w: ||||
 A2 ^G2 A2 F2 =G2 F2 G2 E2 | (F2 E2 F2 D2 E8-) | E4 ^D4 E4 E4- | E2 E2 E4 F4 E2 D2 | C4 C4 z4 C4- | %81
w: ri- fi- ca- mus te, glo- ri- fi-|ca- * * * *|* mus te. Gra-|* ti- as a- gi- mus|ti- bi pro-|
w: |||||
 C2 D2 E2 F2 D3 E F3 E/D/ | C2 F2 E2 A2 G3 F/E/ D3 E | F4 F2 F2 A8 | F4 z4 z8 | z16 | z16 | %87
w: * pter ma- gnam glo- * * * *||* ri- am tu-|am.|||
w: ||||||
 z8 E3 D C4 | (DEDC B,2) B,2 (=CDCB, A,2) A,2 | B,3 A, ^G,4 A,2 F,2 B,4- | (B,4 ^A,4) B,4 z4 | %91
w: Do- mi- ne|Fi- * * * * li u- * * * * ni-|ge- ni- te Je- su Chri-|* * ste.|
w: ||||
 z8 B3 A ^G4 | (ABA=G F2) F2 (GAGF E2) E2 | F2 F2 D4 E2 E2 E4- | (E2 ^D2) E4 z4 E4 | %95
w: Do- mi- ne|De- * * * * us A- * * * * gnus|De- i, Fi- li- us Pa-|* * tris. Qui|
w: ||||
 G4 G2 F2 G4 E4 | F4 E4 F6 D2 | E4 ^D4 E8 | ^D4 z2 B,2 B,4 B,2 B,2 | B,4 A,4 A,4 A,4 | z16 | %101
w: tol- lis pec- ca- ta|mun- di mi- se-|re- re no-|bis. Qui tol- lis pec-|ca- ta mun- di:||
w: ||||||
 z8 (D3 E/F/ G3) F | E4 F6 F2 G4- | G4 A2 A2 F2 G2 A2 G2 | (B4 F4) G4 z2 G2 | F4 F2 F2 F4 E2 E2 | %106
w: Su- * * * sci-|pe, su- sci- pe|_ de- pre- ca- ti- o- nem|no- * stram. Qui|se- des ad de- xte- ram|
w: |||||
 E4 E4 E4 F4 | D4 E4 C8 | B,8 (B,4 =C2 D2 | E6) F2 ^G8 | z16 | z2 ^G2 A4 F4 =G4 | E4 z4 z4 z2 ^G2 | %113
w: Pa- tris: mi- se-|re- re no-|bis. Quo- * *|* ni- am||Tu so- lus sanc-|tus Tu|
w: |||||||
 A4 F4 =G3 F E4 | z8 z2 ^G2 A4 | F2 D2 =G3 F E8 | F4 D4 D8 | B,8 z8 | z2 D2 E2 F2 G2 E2 F2 D2 | %119
w: so- lus Do- mi- nus|Tu so-|lus Al- tis- si- mus|Je- su Chri-|ste.|Cum Sanc- to Spi- ri- tu in|
w: ||||||
 E2 F2 G2 FE FEFD E2 E2 | F2 G2 A2 F2 G2 E2 F2 G2 | A2 A4 G2 F4 E2 A2- | (A2 ^G2) A2 z2 z8 | %123
w: glo- ri- a, _ _ _ _ _ _ _ cum|Sanc- to Spi- ri- tu in glo- ri-|a De- i Pa- tris, Pa-|* * tris.|
w: ||||
 (=A3 G F2 E2-) (E2 =D2) C2 E2 | F2 G2 A2 F2 G2 E2 F2 G2 | A2 A4 G2 F4 E2 E2 | F2 G2 A4 G4 F2 G2- | %127
w: A- * * * * * men. Cum|Sanc- to Spi- ri- tu in glo- ri-|a De- i Pa- tris, in|glo- ri- a De- i Pa-|
w: ||||
 (GF F4 E2) F4 z4 | z8 B3 A ^G2 A2- | A^G F2 =G4 F8 | F8 =G3 F E4- | E4 F6 E2 D4 | %132
w: * * * * tris.|A- * * *|* * * men, A-|men. A- * *||
w: |||||
 E3 D =C2 A,2 B,8 | B,16 |] E8 F6 G2 | A4 F4 G4 G2 E2 | F6 G2 A4 G2 G2 | (G4 F4) G8 | %138
w: * * * men. A-|men.|Pa- trem om-|ni- po- ten- tem fa-|cto- rem cae- li et|ter- * rae|
w: ||||||
 D2 C2 D2 B,B, =C2 B,B, C2 A,2 | B,2 A,2 B,8 A,4 | B,4 F6 F2 F2 F2 | A4 A2 A2 B4 A4 | %142
w: vi- si- bi- li- um om- ni- um et in-|vi- si- bi- li-|um. Et in u- num|Do- mi- num Je- sum|
w: ||||
 A4 A4 B4 F2 G2 | A4 A4 G4 F4 | A6 A2 F8 | A2 G2 A2 F2 G2 F2 G2 E2 | F4 E2 D2 C6 C2 | B,8 z8 | %148
w: Chri- stum, Fi- li- um|De- i u- ni-|ge- ni- tum.|Et ex Pa- tre na- tum an- te|om- ni- a sae- cu-|la.|
w: ||||||
 z16 | E4 C4 D4 B,4 | z2 E2 C4 D4 B,4- | (B,4 ^A,4) B,4 z4 | z4 F3 E D2 D2 E4 | %153
w: |De- um ve- rum|de De- o ve-|* * ro.|Ge- ni- tum non fa-|
w: |||||
 C4 D2 D2 B,2 B,2 C2 C2 | A,4 B,4 =C6 C2 | =C4 C2 C2 B,6 B,2 | B,4 z2 E2 G4 G2 F2 | G4 E4 F6 E2 | %158
w: ctum, con- sub- stan- ti- a- lem|Pa- tri: per quem|om- ni- a fa- cta|sunt. Qui pro- pter nos|ho- mi- nes et|
w: |||||
 F6 G2 E4 E2 E2 | D4 D4 z4 z2 E2 | D4 C2 B,2 (B,6 ^A,2) | B,2 B2 =A4 G4 G4 | F8 F8 | G8 F6 E2 | %164
w: pro- pter nos- tram sa-|lu- tem de-|scen- dit de cae- *|lis, de- scen- dit de|cae- lis.|Et in- car-|
w: ||||||
 F4 E4 F6 G2 | E4 E2 E2 ^D4 D4 | z2 E4 B,2 =C4 =D4 | =C6 C2 B,4 z2 B,2 | D4 D4 B,6 B,2 | B,8 z8 | %170
w: na- tus est de|Spi- ri- tu San- cto|ex Ma- ri- a|Vir- gi- ne et|ho- mo fa- ctus|est.|
w: ||||||
 z16 | E6 ^D2 E6 ^C2 | D3 C D2 E2 =C8 | B,4 z2 D2 F3 E F2 D2 | E8 ^D8 | z4 G8 F4- || %176
w: |Cru- ci- fi- xus|e- ti- am pro no-|bis sub Pon- ti- o Pi-|la- to|pas- sus|
w: ||||||
[M:4/2] F4 E8 C4 ||[M:2/2] (^DB, E4 DC ||[M:6/4] ^D4) D2 E4 z2 | z12 | z12 | z6 z2 B,2 B,2 | %182
w: _ et se-|pul- * * * *|* tus est.|||Et a-|
w: ||||||
 E3 E ^D2 E4 C2 | =D3 D C2 B,3 B, B,2 | CB,CDEC DCDEFD | E3 FDE C4 B,2 | C6 B,4 z2 | %187
w: scen- dit in cae- lum|se- det ad de- xte- ram|Pa- * * * * * * * * * * *||* tris.|
w: |||||
 z2 z2 B,2 E4 E2 | E4 F2 B4 ^A2 | B4 ^G2 =A4 G2 | A4 F2 =G4 F2 | G4 E2 F4 E2 | F4 D2 E3 E D2 | %193
w: Et i- te-|rum, et i- te-|rum ven- tu- rus|est et i- te-|rum ven- tu- rus|est cum glo- ri- a|
w: ||||||
 E4 E2 D4 E2 ||[M:4/2] D4 D2 D2 C6 C2 | B,8 z2 D4 E2 | F4 F2 G2 (A2 G2) (F2 E2) | %197
w: ju- di- ca- re|vi- vos et mor- tu-|os: cu- jus|re- gni non e- * rit _|
w: ||||
 (E4 ^D4) E4 B,2 B,2 | C2 ^DD E2 C2 =D2 B,B, C2 D2 | E4 D4 C8 | (B,2 C2 D2 E2 F4) z4 | %201
w: fi- * nis. Et in|Spi- ri- tum Sanc- tum Do- mi- num, et vi-|vi- fi- can-|tem _ _ _ _|
w: ||||
 F2 F2 G2 A2 B2 AG A2 F2 | G4 F4 E2 E2 F2 GG | (A2 GF G3) G F8 | D8 D8 | C2 A,2 (D8 C4) | D8 z8 | %207
w: Qui ex Pa- tre Fi- li- o- que pro-|ce- dit. Qui cum Pa- tre et|Fi- * * * li- o|si- mul|a- do- ra- *|tur|
w: ||||||
 z8 z4 z2 D2 | E2 F2 G2 G2 F2 F2 E3 E | F2 G2 A4 G2 E2 F4 | E4 z2 D2 E2 F2 G4 | %211
w: et|con- glo- ri- fi- ca- tur: Qui lo-|cu- tus est per Pro- phe-|tas. Et u- nam Sanc-|
w: ||||
 F2 F2 E3 E D2 D2 E2 F2 | (G3 D E2 F2 G3) G F4 | z2 E2 (G2 FE D2 =C2 D3) D || %214
w: tam Ca- tho- li- cam et A- po-|sto- * * * * li- cam|Ec- cle- * * * * * si-|
w: |||
[M:6/4] D4 E2 G3 G F2 | G3 G E2 F4 E2 ||[M:9/4] F4 D2 E4 D2 E4 F2 || %217
w: am. Con- fi- te- or|u- num ba- pti- sma|in re- mis- si- o- nem|
w: |||
[M:3/1] D4 ^C4 B,8 (C2 DE F4) ||[M:6/4] F4 F2 F4 E2 ||[M:9/4] E4 E2 E4 D2 D4 D2 || %220
w: pec- ca- to- rum. _ _ _|Et ex- pec- to|re- sur- rec- ti- o- nem|
w: |||
[M:3/1] =C2 B,2 (B,6 A,G, A,4) B,8 ||[M:4/2] z2 B,2 E4 C2 A,2 D3 C | B,2 B,B, EFED CB, C2 DEDC | %223
w: mor- tu- o- * * * rum|Et vi- tam ven- tu- ri|sae- cu- li. A- * * * * * * * * * *|
w: |||
 B,A, B,4 ^A,2 B,4 z4 | z16 | z16 | z4 z2 B,2 E4 C2 A,2 | D4 B,4 z2 C2 F4 | ^D2 B,2 E4 C2 E2 A4 | %229
w: * * * * men.|||Et vi- tam ven-|tu- ri, et vi-|tam ven- tu- ri, et vi-|
w: ||||||
 F2 D2 G3 F E2 EE ABAG | FE F2 GAGF ED E2 FGFE | D2 DD E4 C2 A,2 D3 C | %232
w: tam ven- tu- ri sae- cu- li. A- * * *||* men. Et vi- tam ven- tu- ri|
w: |||
 B,2 B,B, CDCB, A,G, A,2 B,=CB,A, | G,F, G,2 =C4 B,8 | G,8 A,3 ^G, A,2 B,2 | =C6 B,A, B,8 |] z16 | %237
w: sae- cu- li. A- * * * * * * * * * *|* * * men, A-|men. A- * * *|* * * men.||
w: |||||
 z16 | z16 | z8 (E8 | D4 C4) B,4 z2 B,2 | C2 D2 E2 C2 D2 B,2 C4 | ^D2 E4 D2 E6 =D2 | %243
w: ||San-|* * ctus, San-|||
w: ||||||
 C2 B,2 C4 B,2 D2 E2 F2 | G2 E2 F2 D2 E2 F4 E2 | F4 z4 z4 z2 E2 | F^GAF GABG A2 F2 =G2 E2 | %247
w: * * * ctus, San- * *||ctus, San-|* * * * * * * * * * ctus, San-|
w: ||||
 F2 G2 A2 A,2 B,2 C2 DEFD | E2 F2 E2 (A2 G4 F4) | E4 z4 z8 | z2 D2 E2 F2 G2 E2 F2 D2 | %251
w: |* * ctus, San- * *|ctus,|San- * * * * * *|
w: ||||
 E2 F4 E2 F4 z4 | z4 E4 C4 z4 | z16 | z4 E4 C4 D4 | B,4 C3 B, A,2 (D4 CB, | %256
w: * * * ctus,|San- ctus,||San- ctus, San-|ctus Do- mi- nus De- * *|
w: |||||
 A,2) D2 D3 C D2 F2 D2 B,2 | E4 C2 A,2 D6 B,2 | (CDCB, A,2) F,2 B,2 B2 G2 E2 | A4 F2 D2 G6 E2 | %260
w: * us Sa- ba- oth. Ple- ni sunt|cae- li et ter- ra|glo- * * * * ri- a, ple- ni sunt|cae- li et ter- ra|
w: ||||
 (FGFE D2) B,2 (E6 D=C | D8) D8 | D4 z4 z8 | z8 z4 z2 D2 | F2 E2 F2 D2 (E2 D2 E2 C2 | %265
w: glo- * * * * ri- a _ _|_ tu-|a.|Ho-|san- na in ex- cel- * * *|
w: |||||
 D3 E F3 G A8) | A4 z4 z8 | z4 z2 F2 A2 G2 A2 F2 | (G2 F4 E2) F8 ||[M:6/4] F2 G4 F2 G4 | %270
w: |sis.|Ho- san- na in ex-|cel- * * sis,|ho- san- na in|
w: |||||
 E2 F4 E2 F4 | D2 E4 D2 E4 ||[M:4/2] E4 (E8 ^D4) | E16 |] G6 F2 G4 G2 E2 | F4 F2 D2 E4 E2 D2 | %276
w: ex- cel- sis, in|ex- cel- sis, in|ex- cel- *|sis.|Be- ne- di- ctus qui|ve- nit in no- mi- ne|
w: ||||||
 E6 E2 ^D8 | z8 F6 E2 | E4 E2 =D2 D4 D2 D2 | D2 DC D2 B,2 (C3 D/E/ F4) | G6 F2 G4 G2 E2 | %281
w: Do- mi- ni|Be- ne-|di- ctus qui ve- nit in|no- mi- ne Do- mi- ni _ _ _|Be- ne- di- ctus qui|
w: |||||
 F4 F2 E2 F4 F2 G2 | (E3 F G2) A2 F4 z4 | z16 | z4 B,4 F2 E2 F2 D2 || %285
w: ve- nit in no- mi- ne|Do- * * mi- ni.||Ho- san- na in ex-|
w: ||||
[M:3/1] E2 D2 E2 C2 D3 E F3 G A8 |][M:4/2] z16 | E8 D8 | C8 B,4 z2 B,2 | E4 E2 E2 B2 (BA) B2 G2 | %290
w: cel- * * * * * * * *||A- gnus|De- i qui|tol- lis pec- ca- ta _ mun- *|
w: |||||
 A3 G AGAF GFEF GFGE | F6 G2 E4 F4 | B,4 z2 B,2 E2 ED E2 C2 | (D3 C DCDB, C2) A,2 D4- | %294
w: |* * di, mun-|di, qui tol- lis pec- ca- ta|mun- * * * * * * di, mun-|
w: ||||
 (D4 C4) D4 z4 | z4 z2 A,2 D2 DC D2 B,2 | C3 B, CB,CA, B,A,=G,A, B,A,B,G, | A,4 A,4 z4 z2 E2 | %298
w: * * di,|qui tol- lis pec- ca- ta|mun- * * * * * * * * * * * * *|* di, qui|
w: ||||
 A4 A2 F2 G2 GF G2 E2 | F4 F2 G2 E2 EF E2 E2 | D16 | D8 z8 | D4 C4 D4 B,4 | =C4 B,4 C4 A,4- | %304
w: tol- lis, qui tol- lis pec- ca- ta|mun- di, qui tol- lis pec- ca- ta|mun-|di:|mi- se- re- re,|mi- se- re- re,|
w: ||||do- na no- bis,|do- na no- bis|
 A,4 (B,8 A,4) | B,4 (E3 D ^C2) A,2 (D3 C | B,2) G,2 (=C3 B, A,4) B,4 | E4 ^D4 E4 ^C4 | %308
w: _ no- *|bis, mi- * * se- re- *|* re no- * * bis,|mi- se- re- re,|
w: _ pa- *|cem, do- * * na no- *|* bis pa- * * cem,|do- na no- bis,|
 =D4 C4 D4 B,4 | D3 ^C B,2 G,2 (=C3 B, A,4) | G,4 G4 F4 G4 | E4 F3 E D2 B,2 (E3 D | %312
w: mi- se- re- re,|mi- se- re- re no- * *|bis, mi- se- re-|re, mi- se- re- re no- *|
w: do- na no- bis,|do- na no- bis pa- * *|cem, do- na no-|bis, do- na no- bis pa- *|
 ^CB, C2) D4 z8 | E3 D C2 A,2 F3 E D2 B,2 | (E3 D CB, C2) ^D4 E4 | ^D4 E4 C4 F3 E || %316
w: * * * bis,|mi- se- re- re, mi- se- re- re|no- * * * * bis, mi-|se- re- re, mi- se-|
w: * * * cem,|do- na no- bis, do- na no- bis|pa- * * * * cem, do-|na no- bis, do- na|
[M:3/1] =D2 B,2 (E6 D2) =C4 B,8 |[M:4/2] B,16 |] %318
w: re- re no- * bis, no-|bis.|
w: no- bis pa- * cem, pa-|cem.|
V:3
 e8 d4 c4 | (B4 d4 c4 e4 | d4) c4 B4 z2 B2 | c2 d2 (e2 c2 ^d2 e4) d2 | e4 z2 E2 F2 G2 A2 F2 | %5
w: Ky- rie e-|le- * * *|* i- son Ky-|rie e- le- * * * i-|son Ky- rie e- le- i-|
w: |||||
 G2 (EF GA B4) ^A2 B4 | z8 z2 B2 c2 d2 | (e2 c2 d2 B2 c3 d e4-) | (e2 d2) c4 B2 d2 c4 | %9
w: son, e- * * * * lei- son|Ky- rie e-|le- * * * * * *|* * i- son Ky- ri-|
w: ||||
 B4 A4 (c4 B4 | d4 c4 B4) A4 | z8 z4 z2 G2 | A2 B2 (=c2 A2 B2 G2 A2 B2 | =c6) B2 A4 G4 | %14
w: e e- lei- *|* * * son|Ky-|rie e- le- * * * * *|* i- son, e-|
w: |||||
 (F6 E2) D4 E4 | z4 z2 B2 c2 d2 (e2 c2 | d2 B2 c3) d e4 d2 B2 | c2 A2 (B3 c d3 e f4) | %18
w: le- * i- son|Ky- rie e- le- *|* * * i- son, Ky- ri-|e e- le- * * * *|
w: ||||
 B4 c4 z2 B2 A2 G2 | (F2 A2 G2 B2 A2) G2 F4- | F2 d2 (c2 B2 A2 d2 B4) | d6 =c2 B8 | B16 || %23
w: i- son Ky- rie e-|le- * * * * i- son,|_ e- lei- * * * *|son, e- lei-|son.|
w: |||||
 e4 e2 B2 e4 A4 | d6 c2 d4 B4 | =c4 A4 B8 | B6 E2 B2 A2 B2 ^G2 | A3 ^G AGAF =GFEF GAB^G | %28
w: Chri- ste e- le- i-|son e- le- i-|son, e- lei-|son Chri- ste e- le- *||
w: |||||
 ^A2 B4 A2 B8 | z8 z4 z2 B2 | e2 ^d2 e2 c2 =d3 c d2 B2 | cBAB cBcd eBcd e2 d2 | c2 B2 c4 B8 | %33
w: * * i- son|e-|le- * * * * * * *||* * i- son|
w: |||||
 z4 z2 B2 e2 ^d2 e2 c2 | =d2 c2 d2 B2 cBAB cBcd | e6 d2 c2 B2 c4 | B16 | B4 =d2 c2 d4 B4 | %38
w: e- le- * * *||* * * * i-|son|Chri- ste e- le- *|
w: |||||
 c3 B A2 B2 c2 de f2 e2 | d4 e4 c8 | B16 || z16 | e2 ^c2 d2 B2 (=c2 A2 B2 G2 | %43
w: * * * * * * * * i-|son, e- lei-|son.||Ky- ri- e e- le- * * *|
w: |||||
 A2 F2 G2 E2 F2 D2) E4 | F4 z4 e4 d4 | =c4 B4 (A4 G4 | F4) E2 e2 d4 =c4 | B4 z4 z4 d4 | %48
w: * * * * * * i-|son Ky- ri-|e e- lei- *|* son, e- le- i-|son Ky-|
w: |||||
 B6 ^c2- c2 A4 B2- | B2 E4 A4 G2 (B3 A | G2) F2 (A3 G FE) F2 E3 F | (ED E2 F3) E D2 (d3 c) B2 | %52
w: rie e- * le- i-|* son, Ky- ri- e _|_ e- le- * * * i- son, e-|le- * * * i- son, Ky- * rie|
w: ||||
 A4 d3 ^c B2 G2 =c3 B | AG A2 d4 B4 ^c4 | (A4 B4 G4) F4 | z2 f4 ^d2 e4 c2 =d2- | %56
w: e- le- * * * * i-|son, _ _ Ky- rie e-|lei- * * son,|Ky- ri- e e- le-|
w: ||||
 (d2 B2 c4 A2 B4) G2 | A8 z8 | f3 e d2 B2 e3 d cB c2 | d3 c BA B2 c3 B A2 F2 | %60
w: * * * * * i-|son|Ky- ri- e e- le- * * * *|* * * * * * * * i-|
w: ||||
 B4 =c3 B AG A2 B3 A | G2 E2 A6 G2 F4 | E16 |] B6 B2 B4 E4 | B12 A4 | A6 A2 A4 A4- | A4 A4 A4 D4 | %67
w: son, e- * * * * * *|* i- son, e- lei-|son.|Et in ter- ra|pax ho-|mi- ni- bus bo-|* nae vo- lun-|
w: |||||||
 (G4 E4) F8 | z16 | z8 z4 z2 B2 | e2 ^d2 e2 cc =d3 c d2 BB | (cBAB cBcd e6 d2 | c2) B2 c4 B8 | %73
w: ta- * tis.||Lau-|da- mus te, be- ne- di- ci- mus, be- ne-|di- * * * * * * * * *|* ci- mus te.|
w: ||||||
 z8 z4 z2 BB | e2 ^d2 e2 c2 =d2 c2 d2 B2 | c2 B2 c2 A2 (d6 e2 | c6) B2 B6 A2 | A6 G2 (G6 E2 | %78
w: A- do-|ra- mus te, glo- ri- fi- ca- mus|te glo- ri- fi- ca- *|* mus te, glo-|ri- fi- ca- *|
w: |||||
 F4) F4 E4 B4- | B2 B2 c4 d4 B2 B2 | ^A4 A4 z4 A4- | A2 B2 c2 d2 Bc d3 c/B/ =A2- | %82
w: * mus te. Gra-|* ti- as a- gi- mus|ti- bi pro-|* pter ma- gnam glo- * * * * *|
w: ||||
 AB c3 d e3 d/c/ B4 B2 | (A3 B/c/ d4) e8 | d4 e3 d c4 (dedc | B2) B2 (cdcB A2) A2 B2 B2 | %86
w: * * * * * * * * ri-|am _ _ _ tu-|am. Do- mi- ne De- * * *|* us Rex _ _ _ _ cae- les- tis,|
w: ||||
 ^G2 G2 A4 F4 =G4 | F6 F2 E4 z4 | z16 | z16 | z4 f3 e ^d4 (efe=d | c2) c2 (dedc B2) B2 (cdcB | %92
w: De- us Pa- ter om-|ni- po- tens.|||Do- mi- ne De- * * *|* us A- * * * * gnus De- * * *|
w: ||||||
 A2) F2 (B3 A G2) E2 (A3 G | FE D2) G6 G2 =c4 | B4 B4 z4 B4 | e4 e2 ^d2 e4 c4 | =d6 c2 d4 B4 | %97
w: * i, Fi- * * li- us, _|_ _ _ Fi- li- us|Pa- tris. Qui|tol- lis pec- ca- ta|mun- di: mi- se-|
w: |||||
 =c4 B4 c8 | B4 z2 F2 G4 G2 F2 | G4 E4 F4 F4 | (F3 G/A/ B3) A (^G3 A/B/ c4) | %101
w: re- re no-|bis. Qui tol- lis pec-|ca- ta mun- di:|Su- * * * sci- pe, _ _ _|
w: ||||
 (A3 B/c/ d3) c (B3 c/d/ e4) | c8 d8 | e4 e2 e2 d2 d2 e2 e2 | (f4 B4) B4 z2 e2 | %105
w: su- * * * sci- pe, _ _ _|su- sci-|pe de- pre- ca- ti- o- nem|no- * stram. Qui|
w: ||||
 =d4 d2 c2 d4 B2 B2 | c4 B4 c6 d2 | B4 B4 (B4 ^A4) | B8 G8- | G4 =c4 B4 z2 B2 | e4 ^c4 d4 B4- | %111
w: se- des ad de- xte- ram|Pa- tris: mi- se-|re- re no- *|bis. Quo-|* ni- am Tu|so- lus sanc- tus|
w: ||||||
 B4 z4 z2 B2 e4 | c4 d3 c B4 z4 | z4 z2 B2 e4 c2 A2 | d3 c B8 z4 | B8 G4 A4- | A4 B4 A8 | %117
w: _ Tu so-|lus Do- mi- nus|Tu so- lus Al-|tis- si- mus|Je- su, Je-|* su Chri-|
w: ||||||
 G6 G2 A2 B2 =c2 A2 | B6 A2 B2 ^c2 d2 B2 | c2 A2 B2 c2 d2 d4 c2 | B4 A2 (d4 c2 B4) | A4 z4 z8 | %122
w: ste. Cum Sanc- to Spi- ri-|tu, cum Sanc- to Spi- ri-|tu in glo- ri- a De- i|Pa- tris, Pa- * *|tris.|
w: |||||
 z2 e3 d c2 d3 c B2 c2- | cB ^A2 B2 ^G2 A2 (B4 A2) | B2 B2 c2 d2 e2 c2 d2 B2 | c2 d2 e2 e4 d2 c4 | %126
w: A- * * * * * *|* * * * * men, A- *|men. Cum Sanc- to Spi- ri- tu in|glo- ri- a De- i Pa-|
w: ||||
 B4 z2 A2 B2 c2 d4 | e2 f2 B4 c2 f3 e ^d2 | e3 =d c2 d3 c B2 c3 B | A4 e4 c8 | B16 | %131
w: tris, in glo- ri- a|De- i Pa- tris. A- * *||* men, A-|men.|
w: |||||
 c3 B A4 B6 A2 | G2 (A3 GFE F8) | E16 |] e8 d6 B2 | A4 d4 G4 G2 G2 | d4 B4 A4 B2 =c2 | %137
w: A- * * * *|men, A- * * * *|men.|Pa- trem om-|ni- po- ten- tem fa-|cto- rem cae- li et|
w: ||||||
 d4 d4 B2 A2 B2 GG | A2 A^G A2 F2 (=G2 F2) (G2 E2) | (F2 E2 F2 D2 E6) E2 | F4 d6 d2 d2 d2 | %141
w: ter- rae vi- si- bi- li- um|om- ni- um et in- vi- * si- *|bi- * * * * li-|um. Et in u- num|
w: ||||
 e4 f2 f2 g4 e4 | f4 f4 f4 d2 d2 | e4 f4 (B2 c2) d4 | e6 e2 d8 | z16 | z8 e4 c2 c2 | %147
w: Do- mi- num Je- sum|Chri- stum, Fi- li- um|De- i u- * ni-|ge- ni- tum.||De- um de|
w: ||||||
 d4 B4 c4 A2 A2 | (B4 A2 G2 F6) F2 | E4 z4 z8 | z16 | z4 f3 e ^d2 d2 e4 | c4 =d2 d2 B2 B2 (c3 B | %153
w: De- o, lu- men de|lu- * * * mi-|ne,||Ge- ni- tum non fa-|ctum, con- sub- stan- ti- a- *|
w: ||||||
 AG F2) (B3 A GF E2) (A3 G | FE F2) G4 G6 G2 | A4 A2 A2 F6 F2 | E4 z2 E2 e4 e2 B2 | e4 A4 d6 c2 | %158
w: * * * lem _ _ _ _ Pa- *|* * * tri: per quem|om- ni- a fa- cta|sunt. Qui pro- pter nos|ho- mi- nes et|
w: |||||
 d4 B4 =c4 A2 A2 | B4 B2 d2 ^c4 B4 | z2 A4 G3 G F2 E4 | F4 z2 f2 d4 e2 e2 | c8 B8 | d8 d6 e2 | %164
w: pro- pter nos- tram sa-|lu- tem de- scen- dit|de- scen- dit de cae-|lis, de- scen- dit de|cae- lis.|Et in- car-|
w: ||||||
 d4 B4 d6 d2 | =c4 c2 c2 B4 B4 | z2 B4 B2 E4 B4 | E4 A4 D4 z2 G2 | A4 B4 G6 G2 | F8 e6 ^d2 | %170
w: na- tus est de|Spi- ri- tu San- cto|ex Ma- ri- a|Vir- gi- ne et|ho- mo fa- ctus|est. Cru- ci-|
w: ||||||
 e6 c2 =d3 c d2 e2 | =c6 B2 c6 A2 | B3 A B2 =c2 A8 | G4 z2 G2 d3 ^c d2 B2 | =c8 B8 | E8 F8 || %176
w: fi- xus e- ti- am pro|no- * * *||bis sub Pon- ti- o Pi-|la- to|pas- sus|
w: ||||||
[M:4/2] G4 G4 A6 A2 ||[M:2/2] B8 ||[M:6/4] F2 F2 F2 G4 F2 | E2 E2 E2 B4 ^A2 | B3 B ^G2 =A2 A2 =G2 | %181
w: et se- pul- tus|est.|Et re- sur- re- xit,|et re- sur- re- xit|ter- ti- a di- e, se-|
w: |||||
 F2 F2 F2 (GFGAB^G | ^A2) A2 B2 (B4 A2) | B4 z2 z6 | z12 | z2 z2 B2 e4 ^d2 | e4 c2 =d4 c2 | %187
w: cun- dum, se- cun- * * * * *|* dum scrip- tu- *|ras.||Et i- te-|rum ven- tu- rus|
w: ||||||
 d4 B2 c4 B2 | c4 A2 d4 d2 | d4 e2 c4 e2 | c4 B2 B4 B2 | B4 A2 A4 A2 | A4 G2 G3 G G2 | %193
w: est cum glo- ri-|a, et i- te-|rum ven- tu- rus|est et i- te-|rum ven- tu- rus|est cum glo- ri- a|
w: ||||||
 G4 A2 F4 E2 ||[M:4/2] F4 F2 B2 B4 ^A4 | B8 z2 B4 c2 | d4 d2 d2 (e3 d =c2) e2 | B8 B4 z4 | z16 | %199
w: ju- di- ca- re|vi- vos et mor- tu-|os: cu- jus|re- gni non e- * * rit|fi- nis.||
w: ||||||
 z16 | z4 B2 B2 ^c2 d2 e2 dc | d6 c2 dB e4 d2 | e3 =d c2 B2- B2 ^A2 B4 | =A2 A2 B2 Bc d3 d d4 | %204
w: |Qui ex Pa- tre Fi- li- o-|que pro- ce- * * *|* * * * * * dit.|Qui cum Pa- tre et Fi- li- o|
w: |||||
 A8 B8 | (E3 F G2) D2 A4 A4 | A3 A B2 c2 (d2 cB c2) AA | B2 c2 d4 c4 B4 | A2 d4 c2 d6 c2 | %209
w: si- mul|a- * * do- ra- tur,|si- mul a- do- ra- * * * tur et|con- glo- ri- fi- ca-|tur, con- glo- ri- fi-|
w: |||||
 B4 A4 z2 G2 A2 B2 | =c4 c2 B2 A3 A G4 | z4 z2 G2 A2 B2 (=c4 | B4 A3) A G2 B2 =c2 d2 | %213
w: ca- tur: Et u- nam|Sanc- tam Ca- tho- li- cam|et A- po- sto-|* * li- cam, et A- po-|
w: ||||
 e3 e (d3 ^c/B/ A2) G2 A3 A ||[M:6/4] G4 E2 e3 e ^d2 | e3 e c2 =d4 c2 || %216
w: sto- li- cam _ _ _ Ec- cle- si-|am. Con- fi- te- or|u- num ba- pti- sma|
w: |||
[M:9/4] d4 B2 =c4 B2 c4 A2 ||[M:3/1] B4 A4 G8 F8 ||[M:6/4] d4 ^c2 d4 B2 || %219
w: in re- mis- si- o- nem|pec- ca- to- rum.|Et ex- pec- to|
w: |||
[M:9/4] c4 B2 c4 A2 B4 A2 ||[M:3/1] (G3 F/E/ F2) D2 E8 F8 ||[M:4/2] z16 | z16 | z8 z2 B2 e4 | %224
w: re- sur- rec- ti- o- nem|mor- * * * tu- o- rum|||Et vi-|
w: |||||
 c2 A2 d3 c B2 BB efed | cB c2 dedc BA B4 AG | F8 E4 z2 E2 | B4 ^G2 E2 A4 F2 F2 | B4 ^G4 z8 | z16 | %230
w: tam ven- tu- ri sae- cu- li. A- * * *||* men. Et|vi- tam ven- tu- ri, ven-|tu- ri||
w: ||||||
 z2 B2 e4 c2 A2 d3 c | B2 BB cdcB AG A2 BcBA | GF G2 ABAG FE F2 GAGF | (ED E4) A2- A2 G2 F4 | %234
w: Et vi- tam ven- tu- ri|sae- cu- li. A- * * * * * * * * * *||men, _ _ A- * men, A-|
w: ||||
 E8 =c3 d c2 B2 | A6 ^GF G8 |] z16 | (B8 A4 G4) | F4 z2 E2 F2 G2 A2 F2 | G2 E2 FEF^G ^A2 B4 A2 | %240
w: men. A- * * *|* * * men.||San- * *|ctus, San- * * * *||
w: ||||||
 B4 (=A4 G8 | F4) E4 (B4 A3 G | F2 E2 F4) E4 z2 B2 | c2 d2 e2 c2 d2 B2 c2 d2 | e4 d4 c4 B2 B2 | %245
w: ctus, San- *|* ctus, San- * *|* * * ctus, San-||* * * ctus, San-|
w: |||||
 c2 d2 e2 c2 d2 B2 c4 | ^d4 e4 z8 | z2 (B2 A4 G4) F4 | z4 z2 A2 B2 c2 d2 B2 | c2 A2 B3 c d4 c4 | %250
w: |* ctus,|San- * * ctus,|San- * * * *||
w: |||||
 B4 A4 G4 d4 | z4 z2 B2 A3 G AGAF | ^G2 A4 G2 e4 ^c4 | d3 c B2 (e4 dc B4-) | B2 c2 B3 B A4 z4 | %255
w: * * * ctus,|San- * * * * * *|* * ctus, San- ctus|Do- mi- nus De- * * *|* us Sa- ba- oth.|
w: |||||
 z16 | z8 d8 | c8 B8 | A4 A4 G4 G2 G2 | F8 E4 e4 | d4 d4 =c4 c2 c2 | B2 B2 B4 F2 B2 A4 | %262
w: |Ple-|ni, ple-|ni sunt cae- li et|ter- ra, ple-|ni sunt cae- li et|ter- ra glo- ri- a tu-|
w: |||||||
 B6 B2 d2 ^c2 d2 B2 | c2 B2 c2 A2 d2 c2 d2 B2 | c2 B2 c2 A2 B2 A2 B2 G2 | A2 D2 d4 e4 z2 e2 | %266
w: a. Ho- san- na in ex-|cel- * * * * * * *||* * * sis. Ho-|
w: ||||
 f2 e2 f2 d2 e2 d2 e2 c2 | f2 e2 f2 d2 e2 d2 e2 c2 | d4 B4 (c3 B ^A2) F2 ||[M:6/4] B4 E2 B4 E2 | %270
w: san- na in ex- cel- * * *||* * sis, _ _ ho-|san- na in ex-|
w: ||||
 A4 D2 A4 D2 | G4 G2 G6 ||[M:4/2] A8 F8 | E16 |] e6 ^d2 e4 e2 c2 | =d4 d2 B2 =c4 c2 B2 | %276
w: cel- sis, in ex-|cel- sis, in|ex- cel-|sis.|Be- ne- di- ctus qui|ve- nit in no- mi- ne|
w: ||||||
 =c6 c2 B8 | =d6 ^c2 d4 d2 B2 | ^c4 c2 A2 B4 B2 A2 | B6 B2 ^A8 | (B3 c/^d/ e2) d2 e4 e2 c2 | %281
w: Do- mi- ni|Be- ne- di- ctus qui|ve- nit in no- mi- ne|Do- mi- ni|Be- * * * ne- di- ctus qui|
w: |||||
 =d4 d2 e2 d4 d2 d2 | =cB B4 A2 B4 z2 B2 | =d2 ^c2 d2 B2 c2 B2 c2 A2 | d2 c2 d2 B2 c2 B2 c2 A2 || %285
w: ve- nit in no- mi- ne|Do- * * mi- ni. Ho-|san- na in ex- cel- * * *||
w: ||||
[M:3/1] B2 A2 B2 G2 D4 d4 e4 z2 e2 |][M:4/2] e8 d8 | c8 B4 z2 B2 | e2 ed e2 c2 d3 c dcdB | %289
w: * * * * * * sis, ho-|A- gnus|De- i qui|tol- lis pec- ca- ta mun- * * * * *|
w: ||||
 cBAB cBcd e2 B2 e4- | (e4 ^d4) e4 B4 | =d2 dc d2 B2 cBAB cBcd | e6 d2 c2 B2 c4 | B8 z8 | z8 d8 | %295
w: * * * * * * * * * i, mun-|* * di, qui|tol- lis pec- ca- ta mun- * * * * * * *||di,|A-|
w: ||||||
 c8 B8 | A8 z8 | z4 z2 D2 G2 GF G2 E2 | F3 E FEFD E4 E2 A2 | A4 A2 B2 G2 GG G2 A2 | (F2 D2 G8) F4 | %301
w: gnus De-|i,|qui tol- lis- pec- ca- ta|mun- * * * * * * di, qui|tol- lis, qui tol- lis pec- cat- ta|mun- * * di:|
w: ||||||
 B4 A4 B4 G4 | A4 G4 A4 F4 | G4 F4 G4 E4 | (F4 E2 D2 E8) | F4 z4 z4 (B3 A | %306
w: mi- se- re- re,|mi- se- re- re,|mi- se- re- re,|no- * * *|bis, mi- *|
w: do- na no- bis,|do- na no- bis,|do- na no- bis|pa- * * *|cem, do- *|
 G2) E2 (A3 G F2) D2 (G3 F | E4) F4 z8 | B4 A4 B4 G4 | B3 A G2 E2 (AG G4 F2) | G8 d3 c B2 G2 | %311
w: * se- re- * * re no- *|* bis,|mi- se- re- re,|mi- se- re- re no- * * *|bis, mi- se- re- re|
w: * na no- * * bis pa- *|* cem,|do- na no- bis,|do- na no- bis pa- * * *|cem, do- na no- bis|
 (=c3 B AG A2) B4 z4 | z4 d4 c4 d4 | B4 z4 d3 c B2 B2 | (B6 ^A2) B8 | B3 =A G2 E2 (A3 G F4) || %316
w: no- * * * * bis|mi- se- re-|re, mi- se- re- re|no- * bis,|mi- se- re- re no- * *|
w: pa- * * * * cem,|do- na no-|bis, do- na no- bis|pa- * cem,|do- na no- bis pa- * *|
[M:3/1] G4 z2 =c2- c2 B2 A2 G2 F8 |[M:4/2] E16 |] %318
w: bis, mi- * se- re- re no-|bis.|
w: cem, do- * na no- bis pa-|cem.|
V:4
 z16 | z16 | z16 | z8 z4 z2 B,,2 | C,2 =D,2 (E,2 C,2 D,2 B,,2 C,2 D,2 | E,6 D,2) C,4 B,,4 | z16 | %7
w: |||Ky-|rie e- le- * * * * *|* * i- son||
w: |||||||
 z16 | z8 B,4 A,4 | G,4 F,4 A,4 G,4 | B,4 A,6 G,2 F,4 | E,4 z4 z8 | %12
w: |Ky- ri-|e e- le- i-|son, e- le- i-|son|
w: |||||
 z2 D,2 E,2 F,2 G,2 E,2 F,2 D,2 | E,3 F, G,6 F,2 E,4 | D,6 C,2 B,,4 A,,4 | E,4 z4 z8 | %16
w: Ky- rie e- le- * * *|* * * i- son,|e- * le- i-|son|
w: ||||
 z4 z2 F,2 G,2 A,2 B,2 G,2 | A,2 F,2 G,3 A, B,6 A,2 | G,4 F,4 B,,4 C,4 | D,4 (E,4 C,4 D,4 | %20
w: Ky- rie e- le- *||i- son Ky- rie|e- le- * *|
w: ||||
 B,,4) C,4 D,4 G,,4- | (G,,4 A,,4) B,,8 | E,16 || z16 | z16 | z8 z4 z2 B,,2 | %26
w: * i- son, e-|* * lei-|son.|||Chri-|
w: ||||||
 E,2 ^D,2 E,2 C,2 =D,3 C, D,2 B,,2 | C,B,,A,,B,, C,B,,C,D, E,B,,C,D, E,2 D,2 | C,2 B,,2 C,4 B,,8 | %29
w: ste e- le- * * * * *||* * i- son|
w: |||
 z16 | z4 z2 F,2 B,2 ^A,2 B,2 ^G,2 | =A,3 ^G, A,2 F,2 =G,2 E,F, G,A,B,^G, | ^A,2 B,4 A,2 B,8 | %33
w: |Chri- ste e- le- *||* * i- son|
w: ||||
 z16 | z16 | z16 | z16 | B,4 B,2 F,2 B,4 E,4 | A,6 ^G,2 A,4 F,4 | =G,4 E,4 F,8 | B,,16 || z16 | %42
w: ||||Chri- ste e- le- i-|son, e- le- i-|son, e- lei-|son.||
w: |||||||||
 z4 B,2 G,2 A,2 F,2 (G,2 E,2 | F,2 D,2 E,2 C,2 D,2 B,,2) =C,4 | B,,4 z4 z8 | z8 z4 E,4 | %46
w: Ky- ri- e e- le- *|* * * * * * i-|son|Ky-|
w: ||||
 D,4 =C,4 B,,4 A,,4 | G,,4 z4 z8 | G,4 E,4 F,4 D,4 | E,4 ^C,4 D,4 B,,4 | %50
w: rie e- le- i-|son|Ky- ri- e e-|le- * * *|
w: ||||
 E,3 D, =C,2 A,,2 D,3 C, B,,A,, B,,2 | =C,3 B,, A,,G,, A,,2 (B,,3 A,, G,,2) G,2- | %52
w: |* * * * i- son, _ _ e-|
w: ||
 G,2 (F,E,) F,4 G,4 z4 | z4 B,3 A, G,2 E,2 (A,3 G, | F,E, F,2 G,4) E,4 F,4 | z4 B,4 ^G,2 A,4 F,2 | %56
w: * le- * i- son|Ky- ri- e e- le- *|* * * * i- son|Ky- ri- e e-|
w: ||||
 (=G,4 E,2 F,4 D,2 E,4 | C,4) D,4 A,8 | B,8 A,8 | G,8 F,8 | E,3 D, =C,2 A,,2 D,3 C, B,,2 G,,2 | %61
w: le- * * * *|* i- son|Ky- ri-|e e-|le- * * * * * * i-|
w: |||||
 (=C,3 B,, A,,G,,) A,,2 B,,8 | E,16 |] z8 E,6 E,2 | E,4 B,,4 E,4 A,,4 | D,6 D,2 D,4 D,4- | %66
w: son, _ _ _ e- lei-|son.|Et in|ter- ra pax ho-|mi- ni- bus bo-|
w: |||||
 D,4 C,4 D,4 B,,4 | =C,8 B,,8 | z16 | z16 | z4 z2 F,2 B,2 ^A,2 B,2 ^G,G, | %71
w: * nae vo- lun-|ta- tis.|||Lau- da- mus te, be- ne-|
w: |||||
 A,3 ^G, A,2 F,F, (=G,F,E,F, G,A,B,^G, | ^A,2) B,4 A,2 B,8 | z16 | z4 z2 F,F, B,2 ^A,2 B,2 ^G,2 | %75
w: di- ci- mus, be- ne- di- * * * * * * *|* ci- mus te.||A- do- ra- mus te, glo-|
w: ||||
 A,2 ^G,2 A,2 F,2 =G,2 F,2 G,2 E,2 | F,3 E, F,2 ^D,2 E,6 A,,2 | D,4 D,2 G,,2 =C,4 C,4 | %78
w: ri- fi- ca- mus te glo- ri- fi-|ca- * * * * *|* mus, glo- ri- fi-|
w: |||
 B,,6 B,,2 E,4 E,4- | E,2 E,2 A,,4 D,4 E,2 E,2 | F,4 F,4 z4 F,4- | %81
w: ca- mus te. Gra-|* ti- as a- gi- mus|ti- bi pro-|
w: |||
 F,2 B,2 A,2 F,2 G,3 F,/E,/ D,3 E, | F,3 G, A,3 G,/F,/ E,3 F, G,4 | D,4 D,4 A,4 A,4 | %84
w: * pter ma- gnam glo- * * * *||ri- am tu- am.|
w: |||
 B,3 A, ^G,4 (A,B,A,=G, F,2) F,2 | (G,A,G,F, E,2) E,2 F,2 F,2 ^D,2 D,2 | E,4 C,4 ^D,4 E,4- | %87
w: Do- mi- ne De- * * * * us,|Rex _ _ _ _ cae- les- tis, De- us|Pa- ter om- ni-|
w: |||
 E,4 ^D,4 E,4 z4 | z16 | z16 | z8 B,3 A, ^G,4 | (A,B,A,=G, F,2) F,2 (G,A,G,F, E,2) E,2 | %92
w: * po- tens.|||Do- mi- ne|De- * * * * us A- * * * * gnus|
w: |||||
 (F,3 E, D,2) B,,2 (E,3 D, =C,2) A,,2 | (D,3 ^C, B,,A,, G,,2) =C,4 A,,2 A,,2 | B,,4 E,4 z8 | z16 | %96
w: De- * * i Fi- * * li-|us, _ _ _ _ Fi- li- us|Pa- tris.||
w: ||||
 z16 | z16 | z4 z2 B,,2 E,4 E,2 ^D,2 | E,4 C,4 =D,4 D,4 | z4 (B,,3 C,/D,/ E,3) D, (C,3 D,/E,/ | %101
w: ||Qui tol- lis pec-|ca- ta mun- di:|Su- * * * sci- pe, _ _|
w: |||||
 F,4) (D,3 E,/F,/ G,3) F, (E,3 F,/G,/ | A,4) (F,3 G,/A,/ B,3) A, (G,3 A,/B,/ | %103
w: _ su- * * * sci- pe, _ _|_ su- * * * sci- pe _ _|
w: ||
 =C4) A,2 A,2 B,2 B,2 C2 C2 | B,8 E,4 z2 E,2 | B,4 B,2 ^A,2 B,4 ^G,2 G,2 | A,4 ^G,4 A,4 F,4 | %107
w: _ de- pre- ca- ti- o- nem|no- stram. Qui|se- des ad de- xte- ram|Pa- tris: mi- se-|
w: ||||
 =G,4 E,4 F,8 | B,,8 (E,6 D,2 | =C,4) A,,4 E,8 | z2 E,2 A,4 F,4 G,4 | E,4 z4 z4 z2 E,2 | %112
w: re- re no-|bis. Quo- *|* ni- am|Tu so- lus sanc-|tus Tu|
w: |||||
 A,4 F,4 G,3 F, E,4 | z8 z2 E,2 A,4 | F,2 D,2 G,3 F, E,4 z4 | z4 E,8 =C,4 | D,8 D,6 D,2 | %117
w: so- lus Do- mi- nus|Tu so-|lus Al- tis- si- mus|Je- su|Chri- ste. Cum|
w: |||||
 E,2 F,2 G,2 E,2 F,2 D,2 E,2 F,2 | G,2 G,4 F,2 E,4 D,2 G,2- | (G,2 F,2 E,4) D,4 z4 | z16 | z16 | %122
w: Sanc- to Spi- ri- tu in glo- ri-|a De- i Pa- tris, Pa-|* * * tris.|||
w: |||||
 z4 A,3 G, F,2 G,3 F, E,2 | F,3 E, ^D,2 E,2 C,2 B,,2 C,4 | B,,4 z4 z8 | z16 | %126
w: A- * * * * *|* * * * * men, A-|men.||
w: ||||
 z4 z2 F,2 G,2 A,2 B,2 B,2- | B,2 A,2 G,4 F,4 B,3 A, | ^G,2 A,3 =G, F,2 G,3 F, E,2 F,2- | %129
w: in glo- ri- a De-|* i Pa- tris. A- *||
w: |||
 F,E, D,2 E,4 F,8 | B,,8 E,6 D,2 | C,4 D,6 C,2 B,,4 | =C,8 B,,8 | E,16 |] z16 | z16 | z16 | %137
w: * * * men, A-|men, A- *||men, A-|men.||||
w: ||||||||
 z8 G,2 F,2 G,2 E,E, | F,2 F,E, F,2 ^D,2 (E,2 D,2) (E,2 C,2) | (=D,2 C,2 D,2 B,,2 =C,6) C,2 | %140
w: vi- si- bi- li- um|om- ni- um et in- vi- * si- *|bi- * * * * li-|
w: |||
 B,,4 B,6 B,2 B,2 B,2 | A,4 F,2 F,2 E,4 A,4 | D,4 D,4 B,,4 B,,2 B,,2 | A,,4 D,4 (G,,2 A,,2) B,,4 | %144
w: um. Et in u- num|Do- mi- num Je- sum|Chri- stum, Fi- li- um|De- i u- * ni-|
w: ||||
 A,,6 A,,2 D,8 | z16 | z16 | B,4 ^G,2 G,2 A,4 F,4 | =G,4 F,2 E,2 E,4 ^D,4 | E,4 z4 z8 | z16 | %151
w: ge- ni- tum.|||De- um de De- o,|lu- men de lu- mi-|ne,||
w: |||||||
 z8 B,3 A, ^G,2 G,2 | A,4 F,4 G,2 G,2 E,2 E,2 | (F,3 E, D,C, B,,2) (E,3 D, C,B,, A,,2) | %154
w: Ge- ni- tum non|fa- ctum, con- sub- stan- ti-|a- * * * * lem _ _ _ _|
w: |||
 D,4 G,,4 =C,6 C,2 | A,,4 A,,2 A,,2 B,,6 B,,2 | E,4 z4 z8 | z16 | z16 | z4 z2 B,2 A,4 G,4 | %160
w: Pa- tri: per quem|om- ni- a fa- cta|sunt.|||de- scen- dit|
w: ||||||
 F,4 (E,6 D,2 C,4) | B,,2 B,,2 F,4 G,4 E,4 | F,8 B,,8 | G,,8 D,6 C,2 | D,4 E,4 D,6 G,,2 | %165
w: de cae- * *|lis, de- scen- dit de|cae- lis.|Et in- car-|na- tus est de|
w: |||||
 =C,4 A,,2 A,,2 B,,4 B,,4 | z2 E,4 D,2 =C,4 B,,4 | A,,6 A,,2 G,,4 z2 G,,2 | D,4 B,,4 E,6 E,2 | %169
w: Spi- ri- tu San- cto|ex Ma- ri- a|Vir- gi- ne et|ho- mo fa- ctus|
w: ||||
 B,,8 z8 | z16 | z16 | z16 | z16 | z16 | z16 ||[M:4/2] z16 ||[M:2/2] z8 || %178
w: est.|||||||||
w: |||||||||
[M:6/4] B,,2 B,,2 B,,2 E,4 ^D,2 | E,3 E, C,2 =D,2 D,2 C,2 | B,,2 B,,2 B,,2 C,B,,C,^D,E,C, | %181
w: Et re- sur- re- xit|ter- ti- a di- e, se-|cun- dum scrip- tu- * * * * *|
w: |||
 =D,C,D,E,F,D, E,3 F,D,E, | C,4 B,,2 C,6 | B,,4 z2 z6 | z12 | z12 | z2 z2 F,2 B,4 ^A,2 | %187
w: ||ras.|||Et i- te-|
w: ||||||
 B,4 ^G,2 =A,4 G,2 | A,4 F,2 =G,3 G, F,2 | G,4 E,2 F,4 E,2 | F,2 F,2 ^D,2 E,4 B,,2 | %191
w: rum ven- tu- rus|est cum glo- ri- a|ju- di- ca- re|vi- vos et i- te-|
w: ||||
 E,4 A,,2 D,4 A,,2 | D,4 G,,2 =C,3 C, G,,2 | =C,4 A,,2 B,,4 ^C,2 ||[M:4/2] D,4 D,2 E,2 F,6 F,2 | %195
w: rum ven- tu- rus|est cum glo- ri- a|ju- di- ca- re|vi- vos et mor- tu-|
w: ||||
 B,,8 z2 B,,4 A,,2 | D,4 D,2 B,,2 A,,4 A,,4 | B,,8 E,4 z4 | z16 | z8 z4 F,2 F,2 | %200
w: os: cu- jus|re- gni non e- rit|fi- nis.||Qui ex|
w: |||||
 G,2 A,2 B,2 A,G, (A,2 G,F, G,2) A,2 | (B,6 A,2 G,4 F,4 | E,6 D,2 C,4) B,,4 | z16 | D,8 B,,8 | %205
w: Pa- tre Fi- li- o- que _ _ _ pro-|ce- * * *|* * * dit.||si- mul|
w: |||||
 A,,4 G,,4 A,,8 | D,4 z4 D,3 D, E,2 F,2 | (G,2 F,E, F,2) D,D, E,2 F,2 G,4- | G,2 F,2 E,4 D,4 z4 | %209
w: a- do- ra-|tur, si- mul a- do-|ra- * * * tur et con- glo- ri-|* fi- ca- tur:|
w: ||||
 z16 | z8 z4 z2 G,,2 | A,,2 B,,2 =C,4 C,2 B,,2 A,,3 A,, | G,,4 z4 z2 G,,2 A,,2 B,,2 | %213
w: |Et|u- nam Sanc- tam Ca- tho- li-|cam et A- po-|
w: ||||
 =C,3 C, (G,,A,,B,,^C, D,2) E,2 D,3 D, ||[M:6/4] G,4 z2 z6 | z12 ||[M:9/4] z18 ||[M:3/1] z24 || %218
w: sto- li- cam _ _ _ _ Ec- cle- si-|am.||||
w: |||||
[M:6/4] B,4 F,2 B,4 E,2 ||[M:9/4] A,4 E,2 A,4 D,2 G,4 D,2 ||[M:3/1] E,4 D,4 =C,8 B,,8 || %221
w: Et ex- pec- to|re- sur- rec- ti- o- nem|mor- tu- o- rum|
w: |||
[M:4/2] z16 | z16 | z4 z2 F,2 B,4 ^G,2 E,2 | A,4 F,2 D,2 =G,3 F, E,2 E,E, | %225
w: ||Et vi- tam ven-|tu- ri, ven- tu- ri sae- cu- li.|
w: ||||
 A,B,A,G, F,E, F,2 G,A,G,F, E,D, E,2- | E,2 ^D,C, D,4 E,4 z4 | z2 B,,2 E,4 C,2 A,,2 D,4 | %228
w: A- * * * * * * * * * * * * *|* * * * men.|Et vi- tam ven- tu-|
w: |||
 B,,4 z4 z8 | z16 | z4 z2 E,2 A,4 F,2 D,2 | G,3 F, E,2 E,E, F,G,F,E, D,C, D,2 | %232
w: ri,||et vi- tam ven-|tu- ri sae- cu- li. A- * * * * * *|
w: ||||
 E,F,E,D, C,B,, C,2 D,E,D,C, B,,A,, B,,2 | =C,3 B,, A,,4 B,,8 | (=C,3 D, C,2 B,,2 A,,6) ^G,,2 | %235
w: |* * * men,|A- * * * * men,|
w: |||
 A,,8 E,8 |] (E,8 D,4 C,4) | B,,4 z2 B,,2 C,2 D,2 E,2 C,2 | D,2 B,,2 C,^D,E,C, D,2 E,4 D,2 | %239
w: A- men.|San- * *|ctus, San- * * * *||
w: ||||
 E,4 =D,4 ^C,8 | B,,4 z4 z8 | z16 | z16 | z16 | z4 (B,4 A,4 G,4) | F,4 z2 (E,2 D,4 C,4) | %246
w: |ctus,||||San- * *|ctus, San- * *|
w: |||||||
 B,,2 z2 z4 z8 | z4 z2 (F,2 E,4 D,4) | A,8 z4 z2 D,2 | E,2 F,2 G,2 E,2 F,2 D,2 E,2 F,2 | %250
w: ctus,|San- * *|ctus, San-||
w: ||||
 G,6 F,2 E,4 B,,2 (B,2 | A,4 G,4 F,8 | E,8) A,,4 A,4 | F,4 G,3 F, E,2 (A,4 ^G,F, | %254
w: * * * ctus, San-||* ctus, San-|ctus Do- mi- nus De- * *|
w: ||||
 E,2) A,2 A,3 ^G, A,4 z4 | z16 | z8 B,8 | A,4 A,4 =G,4 G,2 G,2 | F,8 E,4 E,4 | %259
w: * us Sa- ba- oth.||Ple-|ni sunt cae- li et|ter- ra, ple-|
w: |||||
 D,4 D,4 =C,4 C,2 C,2 | B,,8 A,,8 | G,,4 G,,2 G,,2 D,8 | G,6 E,2 B,2 A,2 B,2 G,2 | %263
w: ni sunt cae- li et|ter- ra|glo- ri- a tu-|a. Ho- san- na in ex-|
w: ||||
 (A,2 G,2 A,2 F,2 G,8 | F,8 E,8 | D,8) A,4 z2 A,2 | D2 C2 D2 B,2 (C2 B,2 C2 A,2 | B,8 A,8 | %268
w: cel- * * * *||* sis. Ho-|san- na in ex- cel- * * *||
w: |||||
 G,8) F,8 ||[M:6/4] B,,2 E,4 B,,2 E,4 | A,,2 D,4 A,,2 D,4 | G,,2 =C,4 G,,2 C,4 || %272
w: * sis.|ho- san- na in|ex- cel- sis, in|ex- cel- sis, in|
w: ||||
[M:4/2] A,,8 B,,8 | E,16 |] z16 | z16 | z16 | B,6 ^A,2 B,4 B,2 ^G,2 | =A,4 A,2 F,2 =G,4 G,2 F,2 | %279
w: ex- cel-|sis.||||Be- ne- di- ctus qui|ve- nit in no- mi- ne|
w: |||||||
 G,6 G,2 F,8 | E,6 B,,2 E,4 E,2 A,,2 | D,4 D,2 C,2 D,4 D,2 B,,2 | =C,6 C,2 B,,4 z2 E,2 | %283
w: Do- mi- ni|Be- ne- di- ctus qui|ve- nit in no- mi- ne|Do- mi- ni. Ho-|
w: ||||
 B,2 ^A,2 B,2 G,2 =A,2 G,2 A,2 F,2 | G,8 F,8 ||[M:3/1] E,8 D,8 A,4 z2 A,2 |][M:4/2] z16 | z16 | %288
w: san- na in ex- cel- * * *||* * sis, ho-|||
w: |||||
 z8 B,8 | A,8 G,8 | F,8 z4 E,4 | B,2 B,A, B,2 G,2 A,3 G, A,G,A,F, | %292
w: A-|gnus De-|i qui|tol- lis pec- ca- ta mun- * * * * *|
w: ||||
 G,F,E,F, G,A,B,^G, ^A,2 B,4 =A,2 | =G,8 (F,3 E, F,2 D,2 | E,8) B,,8 | z8 z4 z2 E,2 | %296
w: |di, mun- * * *|* di,|qui|
w: ||||
 A,4 F,4 =G,8 | F,8 E,8 | D,8 z4 z2 A,,2 | D,4 D,2 G,,2 =C,2 C,B,, C,2 A,,2 | %300
w: tol- lis, A-|gnus De-|i, qui|tol- lis, qui tol- lis pec- ca- ta|
w: ||||
 (B,,3 A,, B,,2 G,,2 D,4) D,4 | G,4 F,4 G,4 E,4 | F,4 E,4 F,4 ^D,4 | E,4 ^D,4 E,4 ^C,4 | %304
w: mun- * * * * di:|mi- se- re- re,|mi- se- re- re,|mi- se- re- re,|
w: |do- na no- bis,|do- na no- bis,|do- na no- bis|
 (D,4 =C,2 B,,2 C,8) | B,,4 z4 z8 | (E,3 D, =C,2) A,,2 (D,3 ^C, B,,2) G,,2 | =C,4 B,,4 z8 | %308
w: no- * * *|bis,|mi- * * se- re- * * re|no- bis,|
w: pa- * * *|cem,|do- * * na no- * * bis|pa- cem,|
 z8 z4 E,4 | D,4 (E,3 D, =C,2) C,2 D,4 | G,,4 z4 z8 | z16 | z4 B,4 ^A,4 B,4 | %313
w: mi-|se- re- * * re no-|bis,||mi- se- re-|
w: do-|na no- * * bis pa-|cem,||do- na no-|
 ^G,4 A,3 =G, F,2 D,2 (G,3 F, | E,D, E,2 F,4) B,,4 E,4 | B,,4 E,4 A,,4 D,3 C, || %316
w: re, mi- se- re- re no- *|* * * * bis, mi-|se- re- re, mi- se-|
w: bis, do- na no- bis pa- *|* * * * cem, do-|na no- bis, do- na|
[M:3/1] B,,2 G,,2 (=C,3 B,,) A,,8 B,,8 |[M:4/2] E,16 |] %318
w: re- re no- * bis, no-|bis.|
w: no- bis, pa- * cem, pa-|cem.|

